X: 38
T: George the IVth's Welcome to Scotland
R:Reel
S:MacDonald - Skye Collection
N:pg.133
M:C
L:1/8
K:Bb
d|f2 dB f2 dB|A/B/c c>B AFF_A|GEEG FDDd|edcB AcF=e|f2 db f2dB|
A/B/c c>B AFF_A|GBAc Bdce|dfec B2B||
e|dfbf dfBd|Acfc AcF_A|GEEG FDDd|edcB AcFe|dfbf dfBd|Acfc AcF_A|
(B/A/B) (A/B/c) (B/c/d) (c/d/e)|(d/e/f) (e/f/g) (f/g/a) bg)=e||


